X: 26121
T: McGoldrick's
R: reel
M: 4/4
K: Amajor
K:F#m
||f2 cf ecBc|f2 ce faga|f2cf ecBc|AF (3ABc e3 a|
f2 cf ecBc|f2 ce faga|f2cf ecBc|AF (3ABc ecBA||
~B3c BAFE|(3FGA Bc ~B3c|BABc dcde|(3fga gf ecBA|
~B3c BAFE|(3FGA Bc ~B3A|BABc dcde|(3gab ag fece||

